X:217
T:Ambrose Moloney's
O:england
R:reel
D:Paddy O'Brien, Seamus Connolly & Charlie Lennon
M:C|
K:G
~B3G ABGE|DG~G2 ~A3c|BG~G2 A2ef|(3gfe dg eA~A2|
(3Bcd BG A2GE|DG~G2 A3c|BG~G2 A2ef|(3gfe dc BG~G2:|
|:dg~g2 ageg|gedB GA (3Bcd|ea~a2 agef|g2~g2 ageg|
dg~g2 ageg|gedB GA (3Bcd|eaag ~e3f|gedc BG~G2:|


